assets/images/svg/amazing.svg

<svg width="89" height="89" viewBox="0 0 89 89" fill="none" xmlns="http://www.w3.org/2000/svg">
<path d="M45.6669 87.7225C69.5591 87.058 88.3889 67.1514 87.7245 43.2597C87.06 19.3681 67.1529 0.538652 43.2607 1.20312C19.3685 1.86759 0.538648 21.7743 1.2031 45.666C1.86756 69.5576 21.7747 88.387 45.6669 87.7225Z" fill="#FFCE00"/>
<path d="M52.0205 26.5753C49.2555 27.4963 45.8335 27.6463 44.4665 27.6723C43.1025 27.6473 39.6635 27.4963 36.9025 26.5753C31.6385 24.8213 23.1725 23.7143 16.7165 23.8663C11.9375 23.9833 6.98851 24.6263 3.90551 25.2453C2.53751 25.5213 1.66851 26.8643 1.98351 28.2223L2.31251 29.6363C2.50551 30.4603 3.14251 31.0683 3.93951 31.3513C4.35051 31.4983 4.74651 31.7663 4.92451 32.2483C5.47751 33.7353 8.47251 42.5723 10.0945 45.8373C11.4235 48.5103 15.0225 50.8023 23.3895 50.8343C35.2965 50.8823 39.4215 43.0083 41.3145 37.9213C41.5125 37.3903 41.8135 36.3723 42.0845 35.3853C42.4735 33.9723 43.3305 32.5813 43.7155 32.3813C43.9405 32.2673 44.2085 32.1703 44.4645 32.1703C44.7305 32.1703 44.9945 32.2673 45.2235 32.3813C45.6035 32.5813 46.4425 33.9723 46.8375 35.3853C47.1075 36.3723 47.4035 37.3903 47.6035 37.9213C49.4955 43.0083 53.6205 50.8823 65.5265 50.8343C73.8945 50.8023 77.4975 48.5103 78.8225 45.8373C80.4435 42.5723 83.4355 33.7353 83.9965 32.2483C84.1745 31.7663 84.5685 31.4983 84.9805 31.3513C85.7775 31.0683 86.4135 30.4603 86.6065 29.6363L86.9365 28.2213C87.2505 26.8633 86.3795 25.5213 85.0125 25.2443C81.9315 24.6253 76.9805 23.9823 72.2035 23.8653C65.7445 23.7143 57.2815 24.8213 52.0205 26.5753Z" fill="#261F11"/>
<path d="M50.048 34.4664C50.298 40.2334 55.915 45.7784 61.171 47.0504C68.899 48.9224 74.711 47.2554 78.007 40.1524C79 38.0094 81.124 33.3404 80.987 30.8494C80.75 26.5234 75.256 27.2834 71.75 27.1954C71.375 27.1874 49.704 26.5774 50.048 34.4664Z" fill="#483D23"/>
<path d="M39.0927 34.4664C38.8427 40.2334 33.2267 45.7784 27.9687 47.0504C20.2417 48.9224 14.4287 47.2554 11.1337 40.1524C10.1417 38.0094 8.01672 33.3404 8.15272 30.8494C8.38972 26.5234 13.8837 27.2834 17.3897 27.1954C17.7647 27.1874 39.4357 26.5774 39.0927 34.4664Z" fill="#483D23"/>
<path d="M21.8995 60.0127C20.6175 60.0127 19.7325 61.2437 20.0735 62.4797C22.3385 70.7327 32.1265 76.9457 43.8905 76.9457C55.7265 76.9457 65.5645 70.6537 67.7495 62.3237C68.0585 61.1477 67.1035 60.0127 65.8865 60.0127H21.8995Z" fill="#562912"/>
<path d="M43.8883 63.2457C50.3093 63.2457 56.1973 62.0317 60.8693 60.0117H26.9033C31.5763 62.0317 37.4653 63.2457 43.8883 63.2457Z" fill="white"/>
<path d="M44.2947 72.4512C40.8827 72.4512 37.8136 73.7702 35.6396 75.8742C38.2146 76.5652 40.9917 76.9462 43.8907 76.9462C47.0277 76.9462 50.0137 76.4922 52.7657 75.6882C50.6027 73.6902 47.6077 72.4512 44.2947 72.4512Z" fill="#CC342F"/>
</svg>

<svg xmlns="http://www.w3.org/2000/svg" width="89" height="89" fill="none" viewBox="0 0 89 89"><path fill="#ffce00" d="M45.667 87.723c23.892-.665 42.722-20.572 42.058-44.463S67.153.539 43.26 1.203C19.368 1.868.539 21.774 1.203 45.666s20.572 42.721 44.464 42.057"/><path fill="#261f11" d="M52.02 26.575c-2.765.921-6.187 1.071-7.553 1.097-1.364-.025-4.803-.176-7.564-1.097-5.264-1.754-13.73-2.86-20.186-2.709-4.78.117-9.728.76-12.811 1.38a2.467 2.467 0 0 0-1.922 2.976l.329 1.414c.193.824.83 1.432 1.627 1.715.41.147.807.415.985.897.553 1.487 3.548 10.324 5.17 13.59 1.329 2.672 4.928 4.964 13.295 4.996 11.907.048 16.032-7.826 17.925-12.913.198-.53.498-1.549.77-2.536.389-1.413 1.245-2.804 1.63-3.004.225-.114.493-.21.75-.21.265 0 .53.096.758.21.38.2 1.22 1.591 1.614 3.004.27.987.566 2.005.766 2.536 1.892 5.087 6.017 12.961 17.923 12.913 8.368-.032 11.972-2.324 13.297-4.997 1.62-3.265 4.613-12.102 5.174-13.589.177-.482.572-.75.984-.897.797-.283 1.433-.89 1.626-1.715l.33-1.415a2.47 2.47 0 0 0-1.924-2.977c-3.082-.619-8.032-1.262-12.81-1.379-6.459-.15-14.922.956-20.183 2.71"/><path fill="#483d23" d="M50.048 34.466c.25 5.767 5.867 11.312 11.123 12.584 7.728 1.872 13.54.205 16.836-6.898.993-2.143 3.117-6.812 2.98-9.303-.237-4.326-5.731-3.566-9.237-3.654-.375-.008-22.046-.618-21.702 7.271M39.093 34.466c-.25 5.767-5.866 11.312-11.124 12.584-7.727 1.872-13.54.205-16.835-6.898-.992-2.143-3.117-6.812-2.981-9.303.237-4.326 5.73-3.566 9.237-3.654.375-.008 22.046-.618 21.703 7.271"/><path fill="#562912" d="M21.9 60.013c-1.282 0-2.167 1.23-1.826 2.467 2.264 8.253 12.052 14.466 23.817 14.466 11.836 0 21.673-6.292 23.859-14.622.308-1.176-.647-2.311-1.864-2.311z"/><path fill="#fff" d="M43.888 63.246c6.421 0 12.31-1.214 16.981-3.234H26.903c4.673 2.02 10.562 3.234 16.985 3.234"/><path fill="#cc342f" d="M44.295 72.451c-3.412 0-6.481 1.32-8.655 3.423a31.9 31.9 0 0 0 8.25 1.072 31.7 31.7 0 0 0 8.876-1.258c-2.163-1.998-5.158-3.237-8.471-3.237"/></svg>
